build/img/sprite.svg

<svg xmlns="http://www.w3.org/2000/svg" xmlns:xlink="http://www.w3.org/1999/xlink"><symbol id="arrow-left" viewBox="0 0 30 11"><path d="M30 5.5H1m0 0L6.486 10M1 5.5L6.486 1"/></symbol><symbol id="arrow-right" viewBox="0 0 30 11"><path d="M0 5.5h29m0 0L23.514 1M29 5.5L23.514 10"/></symbol><symbol id="arrow"><path d="M0 5.5h29m0 0L23.514 1M29 5.5L23.514 10" stroke="#fff"/></symbol><symbol id="burger" viewBox="0 0 25 18">
<path d="M0 1H25M0 9H25M0 17H25" stroke-width="2"/>
</symbol><symbol id="close-icon"><path d="M7 5.445L12.445 0 14 1.555 8.555 7 14 12.445 12.445 14 7 8.555 1.555 14 0 12.445 5.445 7 0 1.555 1.555 0 7 5.445z" fill="#1D1613"/></symbol><symbol id="facebook" viewBox="0 0 12 21">
<path d="M8 12.075H10.8571L12 7.875H8V5.775C8 4.6935 8 3.675 10.2857 3.675H12V0.147C11.6274 0.10185 10.2206 0 8.73486 0C5.632 0 3.42857 1.73985 3.42857 4.935V7.875H0V12.075H3.42857V21H8V12.075Z" fill="white"/>
</symbol><symbol id="instagram" viewBox="0 0 20 21">
<path d="M10 0C12.717 0 13.056 0.0104999 14.122 0.0629999C15.187 0.1155 15.912 0.29085 16.55 0.55125C17.21 0.81795 17.766 1.17915 18.322 1.7619C18.8305 2.28679 19.224 2.92172 19.475 3.6225C19.722 4.29135 19.89 5.05365 19.94 6.1719C19.987 7.2912 20 7.64715 20 10.5C20 13.3528 19.99 13.7088 19.94 14.8281C19.89 15.9463 19.722 16.7076 19.475 17.3775C19.2247 18.0787 18.8311 18.7137 18.322 19.2381C17.822 19.7718 17.2173 20.1849 16.55 20.4487C15.913 20.7081 15.187 20.8845 14.122 20.937C13.056 20.9863 12.717 21 10 21C7.283 21 6.944 20.9895 5.878 20.937C4.813 20.8845 4.088 20.7081 3.45 20.4487C2.78233 20.1857 2.17753 19.7725 1.678 19.2381C1.16941 18.7133 0.775931 18.0783 0.525 17.3775C0.277 16.7086 0.11 15.9463 0.0599999 14.8281C0.0129999 13.7088 0 13.3528 0 10.5C0 7.64715 0.00999994 7.2912 0.0599999 6.1719C0.11 5.0526 0.277 4.2924 0.525 3.6225C0.775236 2.92129 1.1688 2.28619 1.678 1.7619C2.17767 1.22769 2.78243 0.814516 3.45 0.55125C4.088 0.29085 4.812 0.1155 5.878 0.0629999C6.944 0.0136499 7.283 0 10 0ZM10 5.25C8.67392 5.25 7.40215 5.80312 6.46447 6.78769C5.52678 7.77225 5 9.10761 5 10.5C5 11.8924 5.52678 13.2277 6.46447 14.2123C7.40215 15.1969 8.67392 15.75 10 15.75C11.3261 15.75 12.5979 15.1969 13.5355 14.2123C14.4732 13.2277 15 11.8924 15 10.5C15 9.10761 14.4732 7.77225 13.5355 6.78769C12.5979 5.80312 11.3261 5.25 10 5.25ZM16.5 4.9875C16.5 4.6394 16.3683 4.30556 16.1339 4.05942C15.8995 3.81328 15.5815 3.675 15.25 3.675C14.9185 3.675 14.6005 3.81328 14.3661 4.05942C14.1317 4.30556 14 4.6394 14 4.9875C14 5.3356 14.1317 5.66944 14.3661 5.91558C14.6005 6.16172 14.9185 6.3 15.25 6.3C15.5815 6.3 15.8995 6.16172 16.1339 5.91558C16.3683 5.66944 16.5 5.3356 16.5 4.9875ZM10 7.35C10.7956 7.35 11.5587 7.68187 12.1213 8.27261C12.6839 8.86335 13 9.66457 13 10.5C13 11.3354 12.6839 12.1366 12.1213 12.7274C11.5587 13.3181 10.7956 13.65 10 13.65C9.20435 13.65 8.44129 13.3181 7.87868 12.7274C7.31607 12.1366 7 11.3354 7 10.5C7 9.66457 7.31607 8.86335 7.87868 8.27261C8.44129 7.68187 9.20435 7.35 10 7.35Z" fill="white"/>
</symbol><symbol id="logo" viewBox="0 0 66 66">
  <path fill-rule="evenodd" clip-rule="evenodd" d="M10.1262 10.1191L33 0.644445L55.8738 10.1191L65.3514 33L55.8738 55.8809L33 65.3556L10.1262 55.8809L0.648582 33L10.1262 10.1191ZM33 0L56.3345 9.66548L66 33L56.3345 56.3345L33 66L9.66548 56.3345L0 33L9.66548 9.66548L33 0ZM28.5672 26.4166C27.948 26.2882 27.1848 26.224 26.2776 26.224C24.7944 26.224 23.4552 26.5094 22.26 27.0802C21.0792 27.651 20.1504 28.4573 19.4736 29.499C18.7968 30.5265 18.4584 31.7109 18.4584 33.0523C18.4584 34.4365 18.7896 35.6638 19.452 36.7341C20.1144 37.8043 21.036 38.6391 22.2168 39.2385C23.412 39.8236 24.7656 40.1161 26.2776 40.1161C27.1272 40.1161 27.876 40.0448 28.524 39.9021C29.1864 39.7593 29.892 39.5096 30.6408 39.1529C30.7272 39.0958 30.7848 39.0458 30.8136 39.003C30.8424 38.9602 30.864 38.8532 30.8784 38.6819L31.0944 36.3274C31.0944 36.2845 31.044 36.2631 30.9432 36.2631C30.8712 36.2631 30.8352 36.2774 30.8352 36.3059C30.4464 37.4761 29.8848 38.3466 29.1504 38.9174C28.416 39.4882 27.4584 39.7736 26.2776 39.7736C25.1688 39.7736 24.1392 39.4739 23.1888 38.8746C22.2528 38.2752 21.504 37.4618 20.9424 36.4344C20.3952 35.3926 20.1216 34.251 20.1216 33.0095C20.1216 31.7109 20.3736 30.5764 20.8776 29.6061C21.3816 28.6214 22.0944 27.8651 23.016 27.3371C23.9376 26.8091 25.0032 26.5451 26.2128 26.5451C28.5168 26.5451 30 27.7366 30.6624 30.1198C30.6768 30.1626 30.72 30.184 30.792 30.184C30.8784 30.1697 30.9216 30.1412 30.9216 30.0984L30.6624 27.5511C30.6336 27.3799 30.612 27.2729 30.5976 27.2301C30.5832 27.1872 30.5256 27.1373 30.4248 27.0802C29.8056 26.7663 29.1864 26.5451 28.5672 26.4166ZM47.8678 39.7094C47.8678 39.6238 47.8462 39.581 47.803 39.581C47.2558 39.581 46.8526 39.5453 46.5934 39.4739C46.3342 39.4026 46.1542 39.267 46.0534 39.0672C45.967 38.8532 45.9238 38.5321 45.9238 38.104V28.1933C45.9238 27.7652 45.967 27.4512 46.0534 27.2515C46.1542 27.0517 46.3342 26.9161 46.5934 26.8448C46.8526 26.7591 47.2558 26.7163 47.803 26.7163C47.8462 26.7163 47.8678 26.6735 47.8678 26.5879C47.8678 26.5023 47.8462 26.4595 47.803 26.4595L46.7446 26.4809C46.1398 26.5094 45.643 26.5237 45.2542 26.5237C44.8222 26.5237 44.2894 26.5094 43.6558 26.4809L42.6406 26.4595C42.5974 26.4595 42.5758 26.5023 42.5758 26.5879C42.5758 26.6735 42.5974 26.7163 42.6406 26.7163C43.2022 26.7163 43.6126 26.7591 43.8718 26.8448C44.131 26.9304 44.3038 27.0802 44.3902 27.2943C44.491 27.4941 44.5414 27.808 44.5414 28.2361V32.6456H36.247V28.2361C36.247 27.808 36.2902 27.4941 36.3766 27.2943C36.4774 27.0802 36.6574 26.9304 36.9166 26.8448C37.1902 26.7591 37.6006 26.7163 38.1478 26.7163C38.1766 26.7163 38.191 26.6735 38.191 26.5879C38.191 26.5023 38.1766 26.4595 38.1478 26.4595L37.111 26.4809C36.4774 26.5094 35.9518 26.5237 35.5342 26.5237C35.1742 26.5237 34.6918 26.5094 34.087 26.4809L32.9854 26.4595C32.9566 26.4595 32.9422 26.5023 32.9422 26.5879C32.9422 26.6735 32.9566 26.7163 32.9854 26.7163C33.5326 26.7163 33.9358 26.7591 34.195 26.8448C34.4542 26.9161 34.627 27.0517 34.7134 27.2515C34.8142 27.4512 34.8646 27.7652 34.8646 28.1933V38.104C34.8646 38.5321 34.8142 38.8532 34.7134 39.0672C34.627 39.267 34.447 39.4026 34.1734 39.4739C33.9142 39.5453 33.511 39.581 32.9638 39.581C32.935 39.581 32.9206 39.6238 32.9206 39.7094C32.9206 39.795 32.935 39.8378 32.9638 39.8378C33.4246 39.8378 33.7846 39.8307 34.0438 39.8164L35.5342 39.795L37.0894 39.8164C37.3486 39.8307 37.7014 39.8378 38.1478 39.8378C38.1766 39.8378 38.191 39.795 38.191 39.7094C38.191 39.6238 38.1766 39.581 38.1478 39.581C37.5862 39.581 37.1758 39.5453 36.9166 39.4739C36.6574 39.4026 36.4774 39.267 36.3766 39.0672C36.2902 38.8532 36.247 38.5321 36.247 38.104V33.0951H44.5414V38.104C44.5414 38.5321 44.491 38.8532 44.3902 39.0672C44.3038 39.267 44.131 39.4026 43.8718 39.4739C43.6126 39.5453 43.2022 39.581 42.6406 39.581C42.5974 39.581 42.5758 39.6238 42.5758 39.7094C42.5758 39.795 42.5974 39.8378 42.6406 39.8378C43.0726 39.8378 43.411 39.8307 43.6558 39.8164L45.2542 39.795L46.7446 39.8164C47.0038 39.8307 47.3566 39.8378 47.803 39.8378C47.8462 39.8378 47.8678 39.795 47.8678 39.7094Z"/>
</symbol><symbol id="mail"><path d="M14 5a4 4 0 11-8 0M1 1h18v16H1V1z"/></symbol><symbol id="pinterest" viewBox="0 0 20 21">
<path d="M11.3644 0.0980097C8.97202 -0.247586 6.54139 0.327484 4.52129 1.71703C2.5012 3.10658 1.02807 5.21676 0.373929 7.65792C-0.280213 10.0991 -0.0711909 12.7064 0.962399 14.9983C1.99599 17.2902 3.78434 19.1121 5.99723 20.1274C5.93739 19.3208 5.99231 18.5094 6.1602 17.7198C6.34517 16.8389 7.456 11.9838 7.456 11.9838C7.2348 11.4631 7.12425 10.898 7.13205 10.3279C7.13205 8.76872 7.98891 7.60535 9.05474 7.60535C9.24622 7.60242 9.43605 7.64283 9.61133 7.72382C9.7866 7.80481 9.94322 7.92449 10.0705 8.07471C10.1978 8.22494 10.2928 8.40219 10.3491 8.59442C10.4053 8.78664 10.4215 8.98934 10.3965 9.18871C10.3965 10.1337 9.81862 11.5638 9.51667 12.9056C9.45699 13.1517 9.45321 13.4091 9.50561 13.657C9.55802 13.9049 9.66515 14.1364 9.81838 14.3329C9.9716 14.5294 10.1666 14.6853 10.3878 14.7881C10.6089 14.8909 10.8499 14.9377 11.0914 14.9247C12.9891 14.9247 14.2609 12.3722 14.2609 9.35881C14.2609 7.04886 12.8041 5.3185 10.1186 5.3185C9.47605 5.29228 8.83516 5.40347 8.2348 5.64531C7.63445 5.88715 7.08717 6.2546 6.62618 6.72535C6.16519 7.1961 5.80012 7.76033 5.55312 8.38378C5.30613 9.00722 5.18237 9.67688 5.18936 10.3521C5.16073 11.1011 5.39083 11.8357 5.83726 12.4205C5.92067 12.4859 5.98159 12.578 6.0108 12.683C6.04002 12.7879 6.03596 12.8999 5.99923 13.0022C5.95324 13.1954 5.83726 13.6564 5.79126 13.8254C5.7817 13.8827 5.75944 13.9369 5.7263 13.9836C5.69315 14.0302 5.65003 14.068 5.60042 14.094C5.55081 14.1199 5.49609 14.1333 5.44067 14.1329C5.38525 14.1326 5.33068 14.1186 5.28134 14.0921C3.89757 13.5104 3.24567 11.9113 3.24567 10.0854C3.24567 7.09611 5.62929 3.51779 10.3985 3.51779C14.1939 3.51779 16.7175 6.43357 16.7175 9.55201C16.7175 13.6564 14.5409 16.7423 11.3244 16.7423C10.8436 16.7584 10.3668 16.647 9.93793 16.4183C9.50907 16.1896 9.14203 15.8511 8.87077 15.434C8.87077 15.434 8.29286 17.8657 8.17888 18.3256C7.94621 19.1201 7.60288 19.8741 7.16004 20.5631C8.0829 20.8571 9.04174 21.0041 10.0056 20.9999C11.319 21.001 12.6196 20.7301 13.8331 20.2025C15.0467 19.675 16.1492 18.9013 17.0775 17.9257C18.0059 16.9501 18.7419 15.7918 19.2434 14.517C19.7448 13.2423 20.002 11.8762 20 10.497C19.9987 7.96129 19.1239 5.51169 17.537 3.6005C15.9501 1.68932 13.7583 0.44562 11.3664 0.0990596L11.3644 0.0980097Z" fill="white"/>
</symbol><symbol id="search" viewBox="0 0 14 14"><path d="M11.048 10.074L14 13.024l-.975.976-2.951-2.952A6.205 6.205 0 010 6.202 6.205 6.205 0 016.203 0a6.205 6.205 0 014.845 10.074zm-1.382-.512a4.808 4.808 0 001.36-3.36 4.823 4.823 0 00-4.823-4.824 4.822 4.822 0 00-4.825 4.825 4.823 4.823 0 004.825 4.824 4.808 4.808 0 003.36-1.361l.103-.104z"/></symbol><symbol id="twitter" viewBox="0 0 20 18">
<path d="M19.999 2.1368C19.25 2.50356 18.4556 2.74443 17.6423 2.85143C18.4996 2.28389 19.1412 1.39068 19.4476 0.338258C18.6431 0.868262 17.761 1.2397 16.8416 1.44062C16.2241 0.709238 15.4056 0.22418 14.5133 0.0608579C13.621 -0.102464 12.705 0.0651004 11.9076 0.537501C11.1103 1.0099 10.4762 1.76067 10.1041 2.67309C9.73199 3.58551 9.64261 4.60846 9.84988 5.58291C8.21832 5.49239 6.62219 5.02306 5.16512 4.2054C3.70805 3.38774 2.42261 2.24003 1.39227 0.836766C1.02756 1.53017 0.835906 2.31842 0.836931 3.12078C0.836931 4.69559 1.56103 6.08685 2.66189 6.9014C2.01041 6.8787 1.37327 6.68395 0.803571 6.33339V6.38986C0.803768 7.43868 1.13164 8.45516 1.7316 9.26694C2.33156 10.0787 3.16668 10.6358 4.09537 10.8439C3.4906 11.0253 2.85646 11.052 2.24097 10.922C2.50281 11.8248 3.01315 12.6144 3.70054 13.1801C4.38793 13.7459 5.21794 14.0595 6.07437 14.0771C5.2232 14.8171 4.2486 15.3641 3.20632 15.6868C2.16403 16.0096 1.0745 16.1018 0 15.9582C1.87568 17.2934 4.05916 18.0023 6.28925 18C13.8373 18 17.9651 11.0784 17.9651 5.07571C17.9651 4.88022 17.9602 4.68255 17.9523 4.48923C18.7558 3.84646 19.4492 3.05021 20 2.13788L19.999 2.1368Z" fill="white"/>
</symbol></svg>

<svg xmlns="http://www.w3.org/2000/svg" xmlns:xlink="http://www.w3.org/1999/xlink"><symbol id="arrow-left" viewBox="0 0 30 11"><path d="M30 5.5H1m0 0L6.486 10M1 5.5L6.486 1"/></symbol><symbol id="arrow-right" viewBox="0 0 30 11"><path d="M0 5.5h29m0 0L23.514 1M29 5.5L23.514 10"/></symbol><symbol id="arrow"><path d="M0 5.5h29m0 0L23.514 1M29 5.5L23.514 10" stroke="#fff"/></symbol><symbol id="burger" viewBox="0 0 25 18"><path d="M0 1h25M0 9h25M0 17h25"/></symbol><symbol id="close-icon"><path d="M7 5.445L12.445 0 14 1.555 8.555 7 14 12.445 12.445 14 7 8.555 1.555 14 0 12.445 5.445 7 0 1.555 1.555 0 7 5.445z" fill="#1D1613"/></symbol><symbol id="facebook" viewBox="0 0 12 21"><path d="M8 12.075h2.857L12 7.875H8v-2.1c0-1.082 0-2.1 2.286-2.1H12V.147C11.627.102 10.22 0 8.735 0 5.632 0 3.429 1.74 3.429 4.935v2.94H0v4.2h3.429V21H8v-8.925z" fill="#fff"/></symbol><symbol id="instagram" viewBox="0 0 20 21"><path d="M10 0c2.717 0 3.056.01 4.122.063 1.065.053 1.79.228 2.428.488a4.87 4.87 0 011.772 1.21c.509.526.902 1.16 1.153 1.862.247.668.415 1.43.465 2.549.047 1.12.06 1.475.06 4.328s-.01 3.209-.06 4.328c-.05 1.118-.218 1.88-.465 2.55a5.16 5.16 0 01-1.153 1.86c-.5.534-1.105.947-1.772 1.21-.637.26-1.363.436-2.428.489-1.066.05-1.405.063-4.122.063-2.717 0-3.056-.01-4.122-.063-1.065-.053-1.79-.229-2.428-.488a4.873 4.873 0 01-1.772-1.21 5.182 5.182 0 01-1.153-1.861c-.248-.67-.415-1.432-.465-2.55C.013 13.708 0 13.353 0 10.5s.01-3.209.06-4.328c.05-1.12.217-1.88.465-2.55a5.156 5.156 0 011.153-1.86A4.88 4.88 0 013.45.552C4.088.29 4.812.114 5.878.062 6.944.013 7.283 0 10 0zm0 5.25a4.882 4.882 0 00-3.536 1.538A5.386 5.386 0 005 10.5c0 1.392.527 2.728 1.464 3.712A4.882 4.882 0 0010 15.75a4.882 4.882 0 003.536-1.538A5.386 5.386 0 0015 10.5a5.386 5.386 0 00-1.464-3.712A4.882 4.882 0 0010 5.25zm6.5-.263a1.35 1.35 0 00-.366-.928 1.22 1.22 0 00-.884-.384c-.332 0-.65.138-.884.384a1.35 1.35 0 00-.366.928c0 .349.132.682.366.929.235.246.553.384.884.384.332 0 .65-.138.884-.384a1.35 1.35 0 00.366-.929zM10 7.35a2.93 2.93 0 012.121.923c.563.59.879 1.392.879 2.227s-.316 1.637-.879 2.227A2.93 2.93 0 0110 13.65a2.93 2.93 0 01-2.121-.923A3.232 3.232 0 017 10.5c0-.835.316-1.637.879-2.227A2.93 2.93 0 0110 7.35z" fill="#fff"/></symbol><symbol id="logo"><path clip-rule="evenodd" d="M10.126 10.12L33 .643l22.874 9.475L65.35 33l-9.477 22.88L33 65.357 10.126 55.88.65 33l9.477-22.88zM33 0l23.334 9.665L66 33l-9.666 23.334L33 66 9.665 56.334 0 33 9.665 9.665 33 0zm-4.433 26.417c-.619-.129-1.382-.193-2.29-.193-1.483 0-2.822.285-4.017.856-1.18.571-2.11 1.377-2.786 2.419-.677 1.027-1.016 2.212-1.016 3.553 0 1.385.332 2.612.994 3.682.662 1.07 1.584 1.905 2.765 2.505 1.195.585 2.549.877 4.06.877.85 0 1.599-.071 2.247-.214a9.692 9.692 0 002.117-.75.633.633 0 00.173-.149c.028-.043.05-.15.064-.321l.216-2.355c0-.042-.05-.064-.15-.064-.073 0-.109.014-.109.043-.389 1.17-.95 2.04-1.685 2.611-.734.571-1.692.857-2.872.857a5.68 5.68 0 01-3.09-.9c-.935-.599-1.684-1.412-2.246-2.44-.547-1.041-.82-2.183-.82-3.424 0-1.3.252-2.434.756-3.404.504-.985 1.216-1.74 2.138-2.269.922-.528 1.987-.792 3.197-.792 2.304 0 3.787 1.192 4.45 3.575.014.043.057.064.129.064.086-.014.13-.043.13-.086l-.26-2.547a2.893 2.893 0 00-.064-.32c-.015-.044-.072-.094-.173-.15a7.457 7.457 0 00-1.858-.664zm19.3 13.292c0-.085-.02-.128-.064-.128-.547 0-.95-.036-1.21-.107-.259-.071-.439-.207-.54-.407-.086-.214-.13-.535-.13-.963v-9.91c0-.429.044-.743.13-.942.101-.2.281-.336.54-.407.26-.086.663-.129 1.21-.129.043 0 .065-.043.065-.128 0-.086-.022-.129-.065-.129l-1.058.022c-.605.028-1.102.043-1.49.043-.433 0-.966-.015-1.6-.043l-1.014-.022c-.044 0-.065.043-.065.129 0 .085.021.128.065.128.561 0 .972.043 1.23.129.26.085.433.235.52.45.1.2.15.513.15.941v4.41h-8.294v-4.41c0-.428.043-.742.13-.942.1-.214.28-.364.54-.45.273-.085.684-.128 1.23-.128.03 0 .044-.043.044-.128 0-.086-.014-.129-.043-.129l-1.037.022c-.634.028-1.16.043-1.577.043-.36 0-.842-.015-1.447-.043l-1.102-.022c-.028 0-.043.043-.043.129 0 .085.015.128.043.128.548 0 .95.043 1.21.129.26.071.432.207.518.407.101.2.152.513.152.941v9.911c0 .428-.05.75-.152.963-.086.2-.266.336-.54.407-.259.071-.662.107-1.21.107-.028 0-.042.043-.042.128 0 .086.014.129.043.129.46 0 .82-.007 1.08-.022l1.49-.021 1.555.021c.26.015.612.022 1.059.022.029 0 .043-.043.043-.129 0-.085-.014-.128-.043-.128-.562 0-.972-.036-1.231-.107-.26-.071-.44-.207-.54-.407-.087-.214-.13-.535-.13-.963v-5.009h8.294v5.009c0 .428-.05.75-.15.963-.087.2-.26.336-.52.407-.258.071-.669.107-1.23.107-.044 0-.065.043-.065.128 0 .086.021.129.065.129.432 0 .77-.007 1.015-.022l1.598-.021 1.49.021c.26.015.613.022 1.059.022.043 0 .065-.043.065-.129z"/></symbol><symbol id="mail"><path d="M14 5a4 4 0 11-8 0M1 1h18v16H1V1z"/></symbol><symbol id="pinterest" viewBox="0 0 20 21"><path d="M11.364.098a9.623 9.623 0 00-6.843 1.619c-2.02 1.39-3.493 3.5-4.147 5.94a10.986 10.986 0 00.588 7.341c1.034 2.292 2.822 4.114 5.035 5.13a8.543 8.543 0 01.163-2.408c.185-.881 1.296-5.736 1.296-5.736a4.096 4.096 0 01-.324-1.656c0-1.56.857-2.723 1.923-2.723a1.28 1.28 0 01.556.119c.176.08.332.2.46.35.127.15.222.328.278.52.056.193.072.395.047.595 0 .945-.577 2.375-.88 3.717a1.7 1.7 0 00-.01.751c.052.248.16.48.312.676.154.196.349.352.57.455.22.103.462.15.703.137 1.898 0 3.17-2.553 3.17-5.566 0-2.31-1.457-4.04-4.142-4.04a4.542 4.542 0 00-1.884.326c-.6.242-1.148.61-1.609 1.08a5.002 5.002 0 00-1.073 1.659 5.202 5.202 0 00-.364 1.968 3.211 3.211 0 00.648 2.069.505.505 0 01.174.262.528.528 0 01-.012.32 42.46 42.46 0 01-.208.822.382.382 0 01-.065.159.36.36 0 01-.126.11.34.34 0 01-.319-.002c-1.383-.582-2.035-2.18-2.035-4.007 0-2.989 2.383-6.567 7.152-6.567 3.796 0 6.32 2.916 6.32 6.034 0 4.104-2.177 7.19-5.394 7.19a2.748 2.748 0 01-1.386-.324 2.91 2.91 0 01-1.067-.984s-.578 2.432-.692 2.892a8.618 8.618 0 01-1.019 2.237 9.236 9.236 0 002.846.437 9.572 9.572 0 003.827-.797 9.967 9.967 0 003.245-2.277 10.537 10.537 0 002.165-3.409c.502-1.275.759-2.64.757-4.02-.001-2.536-.876-4.985-2.463-6.896C15.95 1.689 13.758.446 11.367.099l-.003-.001z" fill="#fff"/></symbol><symbol id="search" viewBox="0 0 14 14"><path d="M11.048 10.074L14 13.024l-.975.976-2.951-2.952A6.205 6.205 0 010 6.202 6.205 6.205 0 016.203 0a6.205 6.205 0 014.845 10.074zm-1.382-.512a4.808 4.808 0 001.36-3.36 4.823 4.823 0 00-4.823-4.824 4.822 4.822 0 00-4.825 4.825 4.823 4.823 0 004.825 4.824 4.808 4.808 0 003.36-1.361l.103-.104z"/></symbol><symbol id="twitter" viewBox="0 0 20 18"><path d="M19.999 2.137a7.615 7.615 0 01-2.357.714c.858-.567 1.5-1.46 1.806-2.513a7.737 7.737 0 01-2.606 1.103C16.224.709 15.406.224 14.513.06a3.761 3.761 0 00-2.605.477c-.798.472-1.432 1.223-1.804 2.135a4.99 4.99 0 00-.254 2.91 10.782 10.782 0 01-4.685-1.378A11.96 11.96 0 011.392.837 4.904 4.904 0 00.837 3.12c0 1.575.724 2.966 1.825 3.78a3.793 3.793 0 01-1.858-.568v.057c0 1.049.328 2.065.928 2.877.6.812 1.435 1.369 2.363 1.577a3.744 3.744 0 01-1.854.078 4.56 4.56 0 001.46 2.258 3.85 3.85 0 002.373.897 7.967 7.967 0 01-2.868 1.61A7.471 7.471 0 010 15.958C1.876 17.293 4.06 18.002 6.29 18c7.547 0 11.675-6.922 11.675-12.924 0-.196-.005-.393-.013-.587A8.884 8.884 0 0020 2.138l-.001-.001z" fill="#fff"/></symbol></svg>
